usr/share/icons/biglinux-icons-material/24/actions/view-pim-notes.svg

<svg xmlns="http://www.w3.org/2000/svg" viewBox="0 0 24 24"><path d="M4 4v16h16V4h-1v1h-2V4h-1v1h-2V4h-1v1h-2V4h-1v1H8V4H7v1H5V4H4zm1 3h14v12H5V7zm2 2v1h10V9H7zm0 3v1h6v-1H7zm0 3v1h8v-1H7zm8 2v1h2v-1h-2z" style="fill:currentColor;fill-opacity:1;stroke:none;color:#dedede"/></svg>

<svg xmlns="http://www.w3.org/2000/svg" viewBox="0 0 24 24">
  <defs id="defs3051">
    <style type="text/css" id="current-color-scheme">
      .ColorScheme-Text {
        color:#dedede;
      }
      </style>
  </defs>
 <path style="fill:currentColor;fill-opacity:1;stroke:none" 
     d="M 4 4 L 4 6 L 4 7 L 4 20 L 5 20 L 13 20 L 15 20 L 17 20 L 19 20 L 20 20 L 20 17 L 20 15 L 20 6 L 20 4 L 19 4 L 19 5 L 17 5 L 17 4 L 16 4 L 16 5 L 14 5 L 14 4 L 13 4 L 13 5 L 11 5 L 11 4 L 10 4 L 10 5 L 8 5 L 8 4 L 7 4 L 7 5 L 5 5 L 5 4 L 4 4 z M 5 7 L 19 7 L 19 8 L 19 9 L 19 10 L 19 11 L 19 16 L 19 18 L 19 19 L 18 19 L 16 19 L 13 19 L 5 19 L 5 11 L 5 10 L 5 9 L 5 8 L 5 7 z M 7 9 L 7 10 L 17 10 L 17 9 L 7 9 z M 7 12 L 7 13 L 13 13 L 13 12 L 7 12 z M 7 15 L 7 16 L 15 16 L 15 15 L 7 15 z M 15 17 L 15 18 L 17 18 L 17 17 L 15 17 z "
     class="ColorScheme-Text"
     />
</svg>
